assets/img/about/abicon1-1.svg

<svg width="50" height="50" viewBox="0 0 50 50" fill="none" xmlns="http://www.w3.org/2000/svg">
<g clip-path="url(#clip0_8_224)">
<path d="M38.7743 20.6296C38.7658 20.6296 38.7573 20.6296 38.7484 20.6292C37.713 20.5961 36.6432 20.2622 35.5109 19.9086C33.4222 19.2562 31.0549 18.5167 28.3827 19.5945C27.8634 19.8029 27.2747 19.407 27.2747 18.8465V11.3001C27.2747 11.0864 27.3593 10.8816 27.5101 10.7304C31.6355 6.59851 35.3642 8.97351 38.9698 11.2699C41.6077 12.9501 44.3355 14.6884 47.4634 14.2308C48.0936 14.1396 48.59 14.8187 48.2997 15.3929C47.6525 16.6715 46.7057 17.7888 44.4589 17.7566C44.8589 18.2517 45.3573 19.1328 44.4174 19.4425C42.9989 19.9094 41.69 19.5013 40.4331 18.8872C40.5553 19.1429 40.6585 19.4235 40.6585 19.7344C40.6589 20.6658 39.4214 20.6296 38.7743 20.6296ZM31.2017 17.432C32.9928 17.432 34.5985 17.9336 35.9916 18.3687C36.971 18.6747 37.8984 18.9642 38.6912 19.0118C38.4513 18.4872 38.2493 17.7715 38.7138 17.007C39.0033 16.5308 39.5509 16.5634 39.9714 16.8179C40.8976 17.3275 41.7436 17.7925 42.5513 17.9614L41.921 17.1816C41.4476 16.5957 42.0077 15.7138 42.7372 15.8904C44.3194 16.2719 45.2368 16.19 45.8178 15.8953C42.9065 15.6892 40.3795 14.0796 38.1037 12.6296C34.3335 10.2283 31.8376 8.87996 28.8876 11.6408V17.7287C29.6892 17.5179 30.4614 17.432 31.2017 17.432Z" fill="white"/>
<path d="M11.1992 20.6117C10.7133 20.6117 9.98348 20.5871 9.60404 20.2416C9.20525 19.8787 9.3363 19.3037 9.53227 18.8714C8.30082 19.4936 6.96695 19.8871 5.54477 19.3404C4.65082 18.9968 5.14477 18.1569 5.54033 17.6678C3.29316 17.6992 2.34679 16.5831 1.69961 15.3041C1.4105 14.7327 1.90485 14.0468 2.53711 14.1424C5.61412 14.5964 8.31614 12.8706 10.9311 11.202C14.5524 8.89075 18.2976 6.50043 22.4855 10.6379C22.6387 10.7895 22.725 10.996 22.725 11.2117V18.7581C22.725 19.3206 22.1307 19.7182 21.6105 19.5037C19.0266 18.4355 16.796 19.1573 14.6395 19.8561C13.448 20.2412 12.3028 20.6117 11.1992 20.6117ZM11.2855 16.9186C11.8307 17.6811 11.527 18.4674 11.2734 18.9976C12.1053 18.9807 13.071 18.6682 14.1428 18.321C16.0831 17.6928 18.4403 16.9295 21.1121 17.6355V11.5557C18.1061 8.77987 15.5928 10.1404 11.7984 12.5613C9.54598 13.9988 7.04517 15.5944 4.17904 15.8053C4.75969 16.1008 5.67703 16.1839 7.26211 15.8016C7.98993 15.6254 8.55364 16.5045 8.07824 17.0928L7.38953 17.9444C8.20162 17.8029 9.0867 17.3057 10.179 16.6464C10.3097 16.5678 10.9375 16.4315 11.2855 16.9186Z" fill="white"/>
<path d="M33.7044 32.754C32.958 30.181 29.9226 29.2339 28.1088 28.6677L27.7637 28.5593C27.0863 28.3431 26.4455 28.2125 25.831 28.1294V9.36371C28.0754 8.98266 29.7903 7.04718 29.7903 4.71815C29.7903 2.11653 27.6524 0 25.0246 0C22.3967 0 20.2584 2.11653 20.2584 4.71815C20.2584 7.04718 21.9734 8.98266 24.2177 9.36371V28.0125C23.506 28.0044 22.8338 28.0431 22.1976 28.0819C20.4359 28.1895 19.0447 28.2746 17.7153 27.2536C17.0806 26.7665 16.0121 25.7331 15.9847 24.2859C15.9536 22.6226 17.3613 21.4399 17.6435 21.2198C17.9947 20.946 18.0572 20.4391 17.7834 20.0879C17.5097 19.7367 17.0028 19.6742 16.6516 19.948C16.1056 20.3738 14.3278 21.9472 14.3722 24.3161C14.4121 26.4391 15.8681 27.8694 16.7326 28.5331C18.5407 29.9214 20.3649 29.8105 22.2955 29.6919C22.9217 29.6536 23.558 29.6177 24.2177 29.6258V36.2573C23.6992 36.2504 23.2105 36.2782 22.7484 36.3065C21.5088 36.3823 20.6129 36.4371 19.7447 35.7706C19.331 35.4524 18.6338 34.7815 18.6165 33.8605C18.5967 32.7996 19.5121 32.0315 19.6955 31.8883C20.0467 31.6145 20.1097 31.1077 19.8359 30.7565C19.5625 30.4052 19.0552 30.3419 18.704 30.6161C18.2967 30.9335 16.9709 32.1077 17.004 33.8899C17.0338 35.4863 18.1181 36.5544 18.7625 37.0492C20.1088 38.0827 21.5004 37.998 22.8467 37.9157C23.2935 37.8883 23.7476 37.8629 24.2177 37.8706V43.5347C23.8459 43.5278 23.5016 43.5472 23.1903 43.5661C22.323 43.6181 21.848 43.6294 21.3726 43.2645C21.1818 43.1185 20.7375 42.7226 20.7278 42.2028C20.7169 41.6129 21.2774 41.1593 21.3411 41.1093C21.6927 40.8355 21.7556 40.3286 21.4822 39.9774C21.2084 39.6254 20.702 39.5629 20.3504 39.8363C20.0544 40.0669 19.0903 40.9206 19.1153 42.2327C19.1371 43.4093 19.9242 44.1859 20.3907 44.544C21.3665 45.2931 22.3439 45.2335 23.2891 45.1758C23.5919 45.1573 23.8996 45.1399 24.2181 45.1472V49.1936C24.2181 49.6387 24.5794 50 25.0246 50C25.4697 50 25.831 49.6387 25.831 49.1936V45.4605C26.4576 45.6605 27.3242 45.9774 27.4806 46.5173C27.5984 46.9242 27.3246 47.421 27.1512 47.681C26.5782 48.5383 27.9133 49.4444 28.4919 48.5774C29.0693 47.7133 29.2552 46.846 29.0298 46.0681C28.6153 44.6391 26.9915 44.1327 26.1189 43.8601L25.9597 43.8101C25.9157 43.796 25.8738 43.7867 25.8306 43.7742V38.0673C25.9758 38.1028 26.1226 38.1427 26.2726 38.1907L26.5242 38.2698C27.5403 38.5867 29.2403 39.1173 29.5609 40.223C29.773 40.9536 29.3798 41.7613 29.0129 42.3105C28.4403 43.1681 29.7746 44.0734 30.354 43.2069C31.1532 42.0109 31.4145 40.8238 31.1101 39.7738C30.548 37.8359 28.3298 37.1436 27.0044 36.7302L26.7621 36.6544C26.4399 36.5516 26.1314 36.4786 25.8302 36.4198V29.7565C26.2943 29.8298 26.773 29.9367 27.2734 30.096L27.6282 30.2077C29.1322 30.677 31.6504 31.4625 32.1552 33.2036C32.4915 34.3629 31.8947 35.6052 31.3351 36.4431C30.7621 37.3004 32.0972 38.2056 32.6762 37.3391C33.752 35.7286 34.1072 34.1436 33.7044 32.754C34.1072 34.1436 32.9584 30.181 33.7044 32.754ZM21.8713 4.71815C21.8713 3.00605 23.2859 1.6129 25.0246 1.6129C26.7633 1.6129 28.1774 3.00605 28.1774 4.71815C28.1774 6.43024 26.7629 7.82379 25.0246 7.82379C23.2863 7.82379 21.8713 6.43065 21.8713 4.71815Z" fill="white"/>
<path d="M32.4375 28.4394C31.5585 28.4394 31.3367 27.1733 32.1634 26.8745C33.4021 26.4269 34.2154 25.3882 34.2355 24.2286C34.2545 23.129 33.5339 22.0931 32.3996 21.5894C31.9924 21.4088 31.8089 20.9322 31.9896 20.5249C32.1706 20.1181 32.6476 19.9354 33.0541 20.1148C34.7815 20.8818 35.8779 22.5072 35.848 24.2564C35.8162 26.0911 34.5851 27.714 32.7117 28.3911C32.6214 28.4237 32.5287 28.4394 32.4375 28.4394Z" fill="white"/>
<path d="M22.4464 49.3826C21.9831 49.3826 21.5287 49.2209 21.1686 48.9222C20.7561 48.5794 20.5033 48.0855 20.4747 47.5669C20.419 46.5536 21.2194 45.6472 22.2581 45.5467C22.6997 45.504 23.0956 45.8286 23.1384 46.2717C23.1811 46.7149 22.8565 47.1092 22.4134 47.152C22.0803 47.1842 21.9851 47.5528 22.265 47.725C22.5646 47.9097 22.8989 47.7048 23.1904 48.0209C23.7666 48.6459 23.1505 49.3826 22.4464 49.3826Z" fill="white"/>
</g>
<defs>
<clipPath id="clip0_8_224">
<rect width="50" height="50" fill="white"/>
</clipPath>
</defs>
</svg>

<svg xmlns="http://www.w3.org/2000/svg" width="50" height="50" fill="none"><g fill="#fff" clip-path="url(#a)"><path d="M38.774 20.63h-.026c-1.035-.034-2.105-.368-3.237-.721-2.089-.653-4.456-1.392-7.128-.314a.816.816 0 0 1-1.108-.748V11.3c0-.214.084-.418.235-.57 4.125-4.131 7.854-1.756 11.46.54 2.638 1.68 5.366 3.418 8.493 2.96.63-.09 1.127.589.837 1.163-.647 1.279-1.594 2.396-3.841 2.364.4.495.898 1.376-.042 1.685-1.418.467-2.727.06-3.984-.555.122.256.225.537.225.847 0 .932-1.237.896-1.884.896m-7.572-3.198c1.79 0 3.396.502 4.79.937.979.306 1.906.595 2.7.643-.24-.525-.443-1.24.022-2.005.29-.476.837-.444 1.257-.19.927.51 1.773.976 2.58 1.144l-.63-.78c-.473-.585.087-1.467.816-1.29 1.582.38 2.5.299 3.08.004-2.91-.206-5.437-1.815-7.713-3.265-3.77-2.402-6.266-3.75-9.216-.99v6.089a9 9 0 0 1 2.314-.297M11.2 20.612c-.487 0-1.217-.025-1.596-.37-.399-.363-.268-.938-.072-1.37-1.231.622-2.565 1.015-3.987.468-.894-.343-.4-1.183-.005-1.672-2.247.031-3.193-1.085-3.84-2.364-.29-.571.205-1.257.837-1.162 3.077.454 5.78-1.271 8.394-2.94 3.621-2.311 7.367-4.702 11.555-.564.153.152.239.358.239.574v7.546c0 .563-.594.96-1.115.746-2.583-1.069-4.814-.347-6.97.352-1.192.385-2.337.756-3.44.756m.086-3.693c.545.762.241 1.548-.013 2.079.832-.017 1.798-.33 2.87-.677 1.94-.628 4.297-1.392 6.97-.686v-6.08c-3.007-2.775-5.52-1.415-9.315 1.006C9.546 14 7.045 15.594 4.18 15.805c.58.296 1.498.379 3.083-.003.728-.177 1.292.703.816 1.29l-.688.852c.812-.141 1.697-.638 2.789-1.298.13-.078.758-.215 1.107.273"/><path d="M33.704 32.754c-.746-2.573-3.781-3.52-5.595-4.086l-.345-.109a11 11 0 0 0-1.933-.43V9.364c2.244-.381 3.96-2.317 3.96-4.646C29.79 2.117 27.651 0 25.024 0s-4.767 2.117-4.767 4.718c0 2.33 1.715 4.265 3.96 4.646v18.649a28 28 0 0 0-2.02.069c-1.762.107-3.153.193-4.483-.828-.634-.488-1.703-1.52-1.73-2.968-.031-1.663 1.376-2.846 1.659-3.066a.807.807 0 0 0-.992-1.272c-.546.426-2.324 2-2.28 4.368.04 2.123 1.496 3.553 2.36 4.217 1.809 1.388 3.633 1.277 5.564 1.159a26 26 0 0 1 1.922-.066v6.631c-.519-.007-1.008.021-1.47.05-1.24.075-2.135.13-3.003-.536-.414-.319-1.111-.99-1.129-1.91-.02-1.061.896-1.83 1.08-1.973a.807.807 0 0 0-.992-1.272c-.407.317-1.733 1.492-1.7 3.274.03 1.596 1.114 2.664 1.758 3.16 1.347 1.033 2.738.948 4.085.866.447-.028.9-.053 1.37-.045v5.664c-.371-.007-.715.012-1.027.031-.867.052-1.342.063-1.817-.302-.191-.146-.636-.541-.645-1.061-.011-.59.55-1.044.613-1.094a.807.807 0 0 0-.99-1.273c-.297.23-1.26 1.085-1.236 2.397.022 1.176.81 1.953 1.276 2.311.976.75 1.953.69 2.898.632.303-.019.61-.036.93-.029v4.047a.807.807 0 0 0 1.612 0V45.46c.627.2 1.493.516 1.65 1.056.117.407-.156.904-.33 1.164-.573.857.762 1.763 1.34.896.578-.864.764-1.731.539-2.509-.415-1.429-2.039-1.935-2.911-2.208l-.16-.05c-.043-.014-.085-.023-.128-.036v-5.707q.217.053.442.124l.251.079c1.016.317 2.716.847 3.037 1.953.212.73-.181 1.538-.548 2.087-.573.858.762 1.763 1.341.897.8-1.196 1.06-2.383.756-3.433-.562-1.938-2.78-2.63-4.106-3.044l-.242-.076a8 8 0 0 0-.932-.234v-6.664c.464.074.943.18 1.443.34l.355.112c1.504.469 4.022 1.255 4.527 2.996.337 1.159-.26 2.401-.82 3.24-.573.856.762 1.762 1.341.895 1.076-1.61 1.431-3.195 1.028-4.585.403 1.39-.746-2.573 0 0M21.871 4.718c0-1.712 1.415-3.105 3.154-3.105s3.152 1.393 3.152 3.105-1.414 3.106-3.152 3.106S21.87 6.43 21.87 4.718"/><path d="M32.438 28.44c-.88 0-1.101-1.267-.275-1.565 1.24-.448 2.052-1.487 2.073-2.646.019-1.1-.702-2.136-1.836-2.64a.807.807 0 1 1 .654-1.474c1.727.767 2.824 2.392 2.794 4.141-.032 1.835-1.263 3.458-3.136 4.135a.8.8 0 0 1-.275.048M22.446 49.383c-.463 0-.917-.162-1.277-.46a1.9 1.9 0 0 1-.694-1.356c-.056-1.013.744-1.92 1.783-2.02a.808.808 0 0 1 .155 1.605c-.333.032-.428.4-.148.573.3.185.634-.02.925.296.577.625-.04 1.362-.744 1.362"/></g><defs><clipPath id="a"><path fill="#fff" d="M0 0h50v50H0z"/></clipPath></defs></svg>
